svg/device/base_station_line.svg

<?xml version="1.0" encoding="UTF-8"?>
<svg width="24px" height="24px" viewBox="0 0 24 24" version="1.1" xmlns="http://www.w3.org/2000/svg" xmlns:xlink="http://www.w3.org/1999/xlink">
    <title>base_station_line</title>
    <g id="Icon" stroke="none" stroke-width="1" fill="none" fill-rule="evenodd">
        <g id="Device" transform="translate(-192.000000, -288.000000)" fill-rule="nonzero">
            <g id="base_station_line" transform="translate(192.000000, 288.000000)">
                <path d="M24,0 L24,24 L0,24 L0,0 L24,0 Z M12.5935,23.2578 L12.5819,23.2595 L12.5109,23.295 L12.4919,23.2987 L12.4767,23.295 L12.4057,23.2595 C12.3958,23.2564 12.387,23.259 12.3821,23.2649 L12.378,23.2758 L12.3609,23.7031 L12.3659,23.7235 L12.3769,23.7357 L12.4805,23.8097 L12.4953,23.8136 L12.5071,23.8097 L12.6107,23.7357 L12.6233,23.7197 L12.6267,23.7031 L12.6096,23.2758 C12.6076,23.2657 12.601,23.2593 12.5935,23.2578 Z M12.8584,23.1453 L12.8445,23.1473 L12.6598,23.2397 L12.6499,23.2499 L12.6472,23.2611 L12.6651,23.6906 L12.6699,23.7034 L12.6784,23.7105 L12.8793,23.8032 C12.8914,23.8069 12.9022,23.803 12.9078,23.7952 L12.9118,23.7812 L12.8777,23.1665 C12.8753,23.1546 12.8674,23.147 12.8584,23.1453 Z M12.143,23.1473 C12.1332,23.1424 12.1222,23.1453 12.1156,23.1526 L12.1099,23.1665 L12.0758,23.7812 C12.0751,23.7927 12.0828,23.8019 12.0926,23.8046 L12.1083,23.8032 L12.3092,23.7105 L12.3186,23.7024 L12.3225,23.6906 L12.3404,23.2611 L12.3372,23.2485 L12.3278,23.2397 L12.143,23.1473 Z" id="MingCute"></path>
                <path d="M12,9 C12.5523,9 13,9.44772 13,10 L13,19 L15,19 C15.5523,19 16,19.4477 16,20 C16,20.5523 15.5523,21 15,21 L9,21 C8.44772,21 8,20.5523 8,20 C8,19.4477 8.44772,19 9,19 L11,19 L11,10 C11,9.44772 11.4477,9 12,9 Z M7.05025,3.63603 C7.44078,4.02656 7.44078,4.65972 7.05025,5.05025 C5.78241,6.31809 5,8.06672 5,9.99999 C5,11.9333 5.78241,13.6819 7.05025,14.9497 C7.44078,15.3403 7.44078,15.9734 7.05025,16.364 C6.65973,16.7545 6.02656,16.7545 5.63604,16.364 C4.00845,14.7364 3,12.485 3,9.99999 C3,7.51499 4.00845,5.26362 5.63604,3.63603 C6.02656,3.24551 6.65973,3.24551 7.05025,3.63603 Z M18.364,3.63603 C19.9915,5.26362 21,7.51499 21,9.99999 C21,12.485 19.9915,14.7364 18.364,16.364 C17.9734,16.7545 17.3403,16.7545 16.9497,16.364 C16.5592,15.9734 16.5592,15.3403 16.9497,14.9497 C18.2176,13.6819 19,11.9333 19,9.99999 C19,8.06672 18.2176,6.31809 16.9497,5.05025 C16.5592,4.65972 16.5592,4.02656 16.9497,3.63603 C17.3403,3.24551 17.9734,3.24551 18.364,3.63603 Z M9.87868,6.46446 C10.2692,6.85498 10.2692,7.48815 9.87868,7.87867 C9.33469,8.42266 9,9.17129 9,9.99999 C9,10.8287 9.33469,11.5773 9.87868,12.1213 C10.2692,12.5118 10.2692,13.145 9.87868,13.5355 C9.48816,13.9261 8.85499,13.9261 8.46447,13.5355 C7.56074,12.6318 7,11.3804 7,9.99999 C7,8.61956 7.56074,7.36819 8.46447,6.46446 C8.85499,6.07394 9.48816,6.07394 9.87868,6.46446 Z M15.5355,6.46446 C16.4393,7.36819 17,8.61956 17,9.99999 C17,11.3804 16.4393,12.6318 15.5355,13.5355 C15.145,13.9261 14.5118,13.9261 14.1213,13.5355 C13.7308,13.145 13.7308,12.5118 14.1213,12.1213 C14.6653,11.5773 15,10.8287 15,9.99999 C15,9.17129 14.6653,8.42266 14.1213,7.87867 C13.7308,7.48815 13.7308,6.85498 14.1213,6.46446 C14.5118,6.07394 15.145,6.07394 15.5355,6.46446 Z" id="形状" fill="#09244B"></path>
            </g>
        </g>
    </g>
</svg>

<svg xmlns="http://www.w3.org/2000/svg" width="24" height="24"><g fill="none" fill-rule="nonzero"><path d="M24 0v24H0V0h24ZM12.594 23.258l-.012.002-.071.035-.02.004-.014-.004-.071-.036c-.01-.003-.019 0-.024.006l-.004.01-.017.428.005.02.01.013.104.074.015.004.012-.004.104-.074.012-.016.004-.017-.017-.427c-.002-.01-.009-.017-.016-.018Zm.264-.113-.014.002-.184.093-.01.01-.003.011.018.43.005.012.008.008.201.092c.012.004.023 0 .029-.008l.004-.014-.034-.614c-.003-.012-.01-.02-.02-.022Zm-.715.002a.023.023 0 0 0-.027.006l-.006.014-.034.614c0 .012.007.02.017.024l.015-.002.201-.093.01-.008.003-.011.018-.43-.003-.012-.01-.01-.184-.092Z"/><path fill="#09244B" d="M12 9a1 1 0 0 1 1 1v9h2a1 1 0 1 1 0 2H9a1 1 0 1 1 0-2h2v-9a1 1 0 0 1 1-1ZM7.05 3.636a1 1 0 0 1 0 1.414A6.975 6.975 0 0 0 5 10c0 1.933.782 3.682 2.05 4.95a1 1 0 0 1-1.414 1.414A8.975 8.975 0 0 1 3 10a8.975 8.975 0 0 1 2.636-6.364 1 1 0 0 1 1.414 0Zm11.314 0A8.975 8.975 0 0 1 21 10a8.975 8.975 0 0 1-2.636 6.364 1 1 0 0 1-1.414-1.414A6.975 6.975 0 0 0 19 10a6.975 6.975 0 0 0-2.05-4.95 1 1 0 0 1 1.414-1.414ZM9.879 6.464a1 1 0 0 1 0 1.415A2.987 2.987 0 0 0 9 10c0 .829.335 1.577.879 2.121a1 1 0 1 1-1.415 1.415A4.987 4.987 0 0 1 7 10c0-1.38.56-2.632 1.464-3.536a1 1 0 0 1 1.415 0Zm5.657 0A4.987 4.987 0 0 1 17 10c0 1.38-.56 2.632-1.464 3.536a1 1 0 1 1-1.415-1.415A2.987 2.987 0 0 0 15 10c0-.829-.335-1.577-.879-2.121a1 1 0 0 1 1.415-1.415Z"/></g></svg>
